X:1
T:Title
%%score { ( 1 2 ) | ( 3 4 ) }
L:1/8
Q:1/4=92
M:4/4
K:Ab
V:1 treble nm="Grand Piano"
V:2 treble 
V:3 bass 
V:4 bass 
V:1
 [Ec]>[Fd] [Ec]>[DB] z2 A,2 | [FB]>[Fc] [FB]>[FA] F4 | E>[EA] [EA]>[EA] [EB]2 [Ec]2 | c4 B2 z2 | %4
w: W.~H.~Doane * * * *||||
 [Ec]>[Fd] [Ec]>[DB] z2 A,2 | [FB]>[Fc] [FB]>[FA] F4 | E>F E>A c2 B2 | [CA]6 z2 | c>B A>c e4 | %9
w: |||||
 c>B A>c [GB]4 | [GB]>[_G=A] [=GB]>[_Ac] [Bd]2 [Bd]2 | c4 e2 z2 | e>d c>B A4 | %13
w: ||||
 [FB]>[Fc] [FB]>[FA] F4 | E>F E>A c2 B2 | [CA]6 z2 |] %16
w: |||
V:2
 z4 [CA]4 | x8 | x8 | x8 | z4 [CA]4 | x8 | x8 | x8 | x8 | x8 | x8 | x8 | x8 | x8 | x8 | x8 |] %16
V:3
 [A,,A,]>[A,,A,] [A,,A,]>[A,,E,] E,2 z2 | [D,A,]>[D,A,] [D,A,]>[C,A,] [D,A,D]4 | %2
 [C,A,]>[C,A,] [C,A,]>[C,A,] [B,,G,]2 [A,,A,]2 | [E,E]4- [E,G,E]2 z2 | z4 E,2 z2 | %5
 [D,A,]>[D,A,] [D,A,]>[D,A,] [D,A,D]4 | [E,A,C]>[E,A,C] [E,A,C]>[A,C] [E,A,E]2 [E,G,D]2 | %7
 [A,,A,]6 z2 | [A,E]>[A,DE] [A,CE]>[A,EA] [A,CA]4 | [A,E]>[A,DE] [A,CE]>[A,EA][K:bass] [E,E]4 | %10
 [E,E]>[E,E] [E,E]>[E,E] [E,E]2 [E,E]2 | E4 z4 | [A,CA]>[A,FA] [A,EA]>[A,DE] [A,CE]4 | %13
 [D,D]>[D,A,] [D,A,]>[D,A,] [D,A,D]4 | [E,A,C]>[E,A,C] [E,A,C]>[E,A,C] [E,A,E]2 [E,G,D]2 | %15
 [A,,A,]6 z2 |] %16
V:4
 z4 A,,4 | x8 | x8 | A,4 z4 | [A,,A,]>[A,,A,] [A,,A,]>[A,,E,] A,,4 | x8 | x8 | x8 | x8 | %9
 x4[K:bass] x4 | x8 | [A,A]4- [A,CA]2 z2 | x8 | x8 | x8 | x8 |] %16

